X:1
T:Solo e pensoso
T:Solo e pensoso
T:Giovanni Battista Moscaglia
T:Source : Melodia Plympica---Anversa---P.Phalesio & G.Bellero---1591. Editor : André Vierendeels (13/01/14).
T:Notes : Original clefs : C1, C3, C4, F4 Editorial accidentals above the staff Square bracket indicates ligature
C:Giovanni Battista Moscaglia
%%score [ 1 [ 2 3 ] 4 ]
L:1/8
Q:1/4=96
M:4/4
K:C
V:1 treble nm="Canto" snm="C"
V:2 treble-8 nm="Tenor 1" snm="T 1"
V:3 treble-8 nm="Tenor 2" snm="T 2"
V:4 bass nm="Basso" snm="B"
V:1
 d8 | d4 d4 | e8 | d4 z2 d2 | B3 c d2 B2 | c8 | B2 G2 B2 d2 | c2 BA B2 c2 | A4 A2 A2 | c4 B4 | %10
w: So-|lo'e pen-|so-|so in|piu- de- ser- ti|cam-|pi, chia- man d'o-|gn'hor _ _ _ la|mor- te, pian-|ge- va|
 A2 GF G2 A2 | B2 AG A4 | D2 A2 c4- | c4 B4 | A2 A2 A4 | G2 B4 c2 | d2 Bc dc de | dc BA BA GF | %18
w: la _ _ _ mia|sor- * * *|te, pian- ge-|* va|la mia sor-|te, quan- d'A|mor sor- * ri- * * *|den- * * * * * * *|
 E4 E2 ^F2 | GA Bc d2 B2 | e4 d2 G2 | A8 | G8 | z8 | z2 D2 F4 | C4 E4- | E2 C2 c4- | c2 BA B4 | %28
w: * do m'ap-|pa- * * * * ru'e|dis se, e|dis-|se,||pian- ge-|va la|_ mia sor-||
 c8 | z8 | G6 A2 | B2 GA BA Bc | B4 G2 G2 | G4 G4 | E2 F2 E4 | E4 z2 A2 | ^F4 z2 G2 | E4 A4 | %38
w: te,||quan- d'A-|mor sor- * ri- * * *|den- do, m'ap-|pa- ru'e|dis- se'in- gra-|to, per-|che, per-|che vai|
 ^G2 G2 A4- |"^#" A2 ^GF G4 | A8 | z2 A2 c2 A2 | B2 ^c2 d2 B2 | A2 G2 A4 | B4 z4 | z4 G4 | %46
w: si pian- gen-||do,|non- hai del|tuo bel sol- la|man toc- ca-|to,|e|
 E2 C2 D2 E2 | D4 E4 | z8 | z4 d4 | z2 B3 B B2 | c8 | B4 d4 | c2 B2 G2 A2 | B4 A4 | z8 | z4 A4 | %57
w: se- c'hog- gi bal-|la- to?||Si,|dun- que che|vo-|i, s'u-|na me- des- ma|fiam- ma,||s'u-|
 B2 A2 B2 c2 | d4 c4 | z2 A4 G2 | FG AB c4 | B4 z2 G2- | G2 F2 EF G2- | G2 F2 E4 | ^F2 G2 D2 A2- | %65
w: na me- des- ma|fiam- ma,|re- gna'in|vo- * * * *|i, re-|* gna'in vo- * *||i, re- gna'in vo-|
 A2 G2 G4- | G2 ^FE F4 | G8 |] %68
w: ||i.|
V:2
 z8 | z8 | z8 | g8 | g4 g4 | a8 | g4 z2 g2 | e3 f g2 e2 | f8 | e2 c2 e2 g2 | f2 ed e2 f2 | %11
w: |||So|lo'e pen-|so-|so in|piu de- ser- ti|cam-|pi, ch'ia- man d'o-|gn'hor _ _ _ la|
 d4 d2 d2 | f4 e4 | ^f2 f2 g4- | g2 ^fe f4 | g2 G4 A2 | B2 GA BA Bc | d4 d4 | z2 c2 AB cd | %19
w: mor- te, pian-|ge- va|la mia sor-||te quan- d'A-|mor sor- * ri- * * *|den- do,|m'ap- par- * * *|
 e2 d2 G4 | g4 z2 e2 | c4 d4 | e6 d2 | z4 c4 | f4 d4 | a4 g4 | e6 f2 | g8 | g8 | z8 | e6 ^f2 | %31
w: * u'e dis-|se, m'ap-|par- u'e|dis- se,|pian-|ge- va|la mia|sor- *||te,||quan- d'A-|
"^#""^#" g2 ef gf ga | g4 d2 d2 | e4 d4 | ^c2 d2 c4 | ^c4 z2 A2 | d4 z2 d2 | g4 f4 | e4 d4 | e8 | %40
w: mor sor- ri- * * * *|de- do, m'ap-|pa ru'e|is- se'in- gra-|to, per|che, per-|che vai|si pian-|gen-|
 e4 e4 | f2 d2 e2 ^f2 | g2 e2 d2 g2 | ^f2 g4 f2 | g4 d4- | d4 z2 G2 | c2 A2 B2 c2 | A4 B4 | %48
w: do, non|hai del tuo bel|sol- la man toc-|ca- * *|to _|_ e|se- c'hog- gi bal-|la- to,|
 z2 g2 e2 ^f2 | g2 d2 z4 | g4 z2 g2- | gg g2 g4 | g4 z2 d2 | e2 d2 e2 ^f2 | g4 ^f4 | z8 | %56
w: non ti pres'|eg- li?|Si, dun|_ que che vo-|i, s'u-|na me- des- ma|fiam- ma,||
 z4 z2 a2 | g2 f2 d2 e2 | f4 e4 | z2 f4 e2 | a4 e3 f | g4 z2 e2- | e2 f2 gf ed | ^c2 d4 c2 | %64
w: s'u-|na me- des- ma|fiam- ma,|re- gna'in|vo- * *|i, re|_ gna'in vo- * * *||
 d2 B4 c2 | d8 | d8- | d8 |] %68
w: i, re- gna'in|vo-|i.|_|
V:3
 z8 | z8 | z8 | z8 | z8 | z8 | z8 | z8 | z8 | z8 | z8 | z8 | z8 | d8 | d4 d4 | e8 | d4 z2 d2 | %17
w: |||||||||||||So-|lo'e pen-|so-|so in|
 B3 c d2 B2 | c8 | B2 G2 B2 d2 | c2 BA B2 c2 | A4 A2 A2 | c4 B4 | A2 GF G2 A2 | _B4 A4 | %25
w: piu de- ser- ti|cam-|pi, chia m'a- d'ho-|gnor _ _ _ la|mor- te, pian-|ge- va|la _ _ _ mia|sor- te,|
 z2 A2 c2 B2 | c3 d e2 c2 | d8 | e2 E4 F2 | G2 EF GA GA | B4 c2 c2 | d2 c2 d4 | d4 B4 | c4 B4 | %34
w: pian- ge- va|la _ _ mia|sor-|te, quan- d'A-|mor sor- * ri- * * *|den- do, m'ap-|pa- ru'e dis-|se,- e|dis- se'in-|
 A8 | A2 A2 ^F4 | z2 d2 B4 | z4 d4 | B4 A4 | B8 | ^c8 | z8 | z8 | z4 d4 | B2 G2 A2 B2 | A4 B2 c2 | %46
w: gra-|to, per- che,|per- che,|vai|si pian-|gen-|do,|||e|se- c'hog- gi bal-|la- to? E|
 G2 F2 F2 G2 | G4 G2 c2 | A2 B2 c4 | B8 | z2 d3 d d2 | e8 | d8 | z8 | z4 d4 | c2 B2 G2 A2 | B4 A4 | %57
w: se- c'hog- gi bal-|la- to, non|ti pres' eg-|li?|Dun- que che|vo-|i,||s'u-|na me- des- ma|fiam- ma,|
 z8 | z4 z2 A2 | B2 A2 B2 ^c2 | d4 c2 e2- | e2 d2 c3 B | A4 G4 | A8 | A2 d4 c2 | B8 | A8 | G8 |] %68
w: |s'u-|na me- des- ma|fiam- ma, re-|* gna'in vo- *|||i, re- gna'in|vo-||i.-|
V:4
 z8 | z8 | z8 | z8 | z8 | z8 | z8 | z8 | z8 | z8 | z8 |"^#" z8 | z8 | z8 | z8 | z8 | G,8 | %17
w: ||||||||||||||||So-|
 G,4 G,4 | A,8 | G,4 z2 G,2 |"^#" E,3 F, G,2 E,2 | F,8 | E,2 C,2 E,2 G,2 | F,2 E,D, E,2 F,2 | %24
w: lo'e pen-|so-|so, in|piu de- ser- ti|cam-|pi, chia m'a- d'ho-|gnor _ _ _ la|
 D,4 D,2 D,2 | F,4 E,4 | A,4 A,4 | G,8 | C,2 C,4 D,2 | E,2 C,D, E,D, E,F, | E,3 D, C,B,, A,,2 | %31
w: mor- te, pian-|ge- va|la mia|sor-|te, quan- d'A-|mor sor- ri- * * * *|den- * * * *|
 G,,2 C,2 G,,2 G,,2 | G,4 G,2 G,,2 | C,4 G,,4 | A,,8 | A,,2 A,,2 D,4 | z2 D,2 G,4 | z4 D,4 | %38
w: do, m'ap- pa- ru'e-|dis- se, e-|dis se'in-|gra-|to, per che|per- che|vai|
 E,4 F,4 | E,8 | A,,8 | z8 | z8 | z4 D,4 | G,2 E,2 ^F,2 G,2 | ^F,4 G,2 C,2 | C,2 F,2 D,2 C,2 | %47
w: si pian-|gen-|do,|||e|se- c'hog- gi bal-|la- to? E|se- c'hog- gi bal-|
 G,4 C,2 C,2 | F,2 G,2 A,4 | G,8 | z2 G,3 G, G,2 | C,8 | G,8 | z8 | z4 D,4 | E,2 D,2 E,2 ^F,2 | %56
w: la- to, non|ti pres' eg-|li?|Dun- qie che|vo-|i,||s'u-|na me- des- ma|
 G,4 ^F,4 | z8 | z4 A,4 | G,2 F,2 D,2 E,2 | F,E, F,G, A,4 | G,4 z2 C,2- | C,2 D,2 E,D, C,B,, | %63
w: fiam- ma,||s'u-|na me- des- ma|fiam- * * * *|ma, re-|* gna'in vo- * * *|
 A,,8 | D,2 G,,4 A,,2 | B,,6 C,2 | D,8 | G,,8 |] %68
w: |i, re- gna'in|vo- *||i.|

